!!key: tele-40-9-Fan-Lar-1-Flute
!!!COM: Telemann, Georg Philipp
!!!CDT: 1681/03/14-1767/06/25
!!!CBL: Magdeburg
!!!CDL: Hamburg
!!!CNT: German
!!!TWV: 40:9
!!!TWV-genre: 40
!!!TWV-work: 9
!!!OPR: 12 Fantasias for transverse flute without bass
!!!OTL: Fantasia 8
!!!OMD: Largo
!!!OMV: 1
!!!ODT: ca. 1732–1733
!!!AST: Late Baroque
!!!AGN: Fantasia
!!!AMT: Simple quadruple
!!!AIN: Transverse flute
**kern	**dynam
*ICww	*
*Iflt	*
*clefG2	*
*k[f#]	*
*e:	*
*M4/4	*
*met(c)	*
=1	=1
8eeL	.
16e	.
16f#J	.
16gL	.
16ee	.
16a	.
16eeJ	.
16bL	.
16ee	.
8dd#XJ	.
8r	.
16dd#L	.
16eeJ	.
=2	=2
16ff#L	.
16b	.
16a	.
16cccJ	.
16gL	.
16bb	.
16f#	.
16aaJ	.
16eL	.
32gg	.
32ff#	.
8eeJ	.
16r	.
16ff#L	.
16gg	.
16bJ	.
!!LO:LB:g=original
=3	=3
16ccL	.
16aa	.
(16ff#	.
16gg)J	.
16bL	.
16ddd	.
(16ff#	.
16gg)J	.
16ccL	p
16aa	.
(16ff#	.
16gg)J	.
16bL	.
16ddd	.
(16ff#	.
16gg)J	.
=4	=4
16aL	f
16ccc	.
16f#	.
16cccJ	.
16gL	.
16bb	.
16cc#X	.
16bbJ	.
16ddL	.
16bb	.
8aaJ	.
16r	.
16ccnL	.
16b	.
16aJ	.
!!LO:LB:g=original
=5	=5
16bL	.
16aa	.
16gg	.
16bJ	.
16dL	.
16gg	.
16ff#	.
16aJ	.
16gL	.
(16ff#	.
16ee#X	.
16een)J	.
(16dd#XL	.
16ddn	.
16cc#X	.
16b)J	.
=6	=6
16f#L	.
(16bb	.
16aa#X	.
16aan)J	.
(16gg#XL	.
16ggn	.
16ff#)	.
16aa#XJ	.
8bbL	.
16b	.
16cc#XJ	.
16ddL	.
16bb	.
16ee	.
16ccc#XJ	.
!!LO:LB:g=original
=7	=7
16ff#L	.
16bb	.
8aa#XJ	.
8r	.
16aa#L	.
16bbJ	.
16ccc#XL	.
16ff#	.
16ee	.
16ccc#J	.
16ddL	.
16bb	.
16cc#X	.
16ccc#J	.
=8	=8
16bL	.
32ddd	.
32ccc#X	.
8bbJ	.
16r	.
16ccc#L	.
16ddd	.
16anJ	.
16g#XL	.
16ffn	.
16ee	.
16bbJ	.
16eL	.
16ddd	.
16cccn	.
16bbJ	.
!!LO:LB:g=original
=9	=9
16aL	.
16ccc	.
(16gg#X	.
16aa)J	.
16r	.
16bbL	.
16ccc	.
16gnJ	.
16f#L	.
16cc#X	.
16dd	.
16aaJ	.
16dL	.
16cccn	.
16bb	.
16aaJ	.
=10	=10
16gL	.
16bb	.
(16ff#	.
16gg)J	.
16r	.
16f#L	.
16g	.
16bbJ	.
16f#L	.
16aa	.
16e	.
16ggJ	.
16bL	.
16ff#	.
16g	.
16bbJ	.
!!LO:LB:g=original
=11	=11
16f#L	.
16aa	.
16e	.
16ggJ	.
16bL	.
16ff#	.
16g#X	.
16bbJ	.
16aL	.
16ccc	.
16b	.
16gg#XJ	.
16ccL	.
16aa	.
16a	.
16aaJ	.
=12	=12
16dd#XL	.
16b	.
16dd#	.
16aaJ	.
16r	.
16bbL	.
16gg	.
16ff#J	.
16ggL	.
16dd#	.
16ee	.
16gJ	.
8bL	.
!TODO: trill +	!
8ff#J	.
!!LO:LB:g=original
=13	=13
16ee\L	.
16b	.
16g	.
16eJ	.
16r	.
16dd#XL	.
16ee	.
16ggJ	.
16aL	.
16ffn	.
(16dd#	.
16ee)J	.
16gL	.
16bb	.
(16dd#	.
16ee)J	.
=14	=14
16aL	p
16ffn	.
(16dd#X	.
16ee)J	.
16gL	.
16bb	.
(16dd#	.
16ee)J	.
16f#XL	f
16aa	.
16d#X	.
16aaJ	.
16eL	.
16gg	.
16a#X	.
16ggJ	.
!!LO:LB:g=original
=15	=15
16bL	.
16gg	.
8ff#J	.
16r	.
16anL	.
16g#X	.
16bbJ	.
16aL	.
16ccc	.
16b	.
16bbJ	.
16ccL	.
16aa	.
16a	.
16aaJ	.
=16	=16
16dd#XL	.
16b	.
16dd#	.
16aaJ	.
16r	.
16bbL	.
16gg	.
16ff#J	.
16ggL	.
16dd#	.
16ee	.
16aJ	.
8bL	.
!TODO: trill +	!
8ff#J	.
=17	=17
4ee	.
4r	.
2r	.
==	==
*-	*-
!!!RTL1: G. PH. Telemann: Twelve Fantasias for Flute without Bass TWV 40:2-13
!!!RPN1: D'Arcangelo, Rita
!!!RMM1: Da Vinci Classics
!!!RC#1: DV-C00440
!!!RRD1: 2022
!!!RLC1: Andreaskirche, Berlin, Germany
!!!RDT1: 16 September 2020, 17 September 2020
!!!RT#1: 8
!!!RTL2: The Telemann Files: 12 Fantasies for Solo Flute
!!!RPN2: Choi, Jasmine
!!!RMM2: Austrian Gramophone
!!!RC#2: AG0001
!!!RRD2: February 2015
!!!RLC2: LeFrak Hall, Queens, USA
!!!RDT2: 9 June 2014, 10 June 2014
!!!RT#2: 8
!!!RTL3: Georg Philipp Telemann: Twelve Fantasies for Flute
!!!RPN3: Robertello, Thomas
!!!RMM3: Delos
!!!RC#3: DE3396
!!!RRD3: 1 June 2009
!!!RLC3: Clear Creek Recording, Keene, California
!!!RDT3: Unknown
!!!RT#3: 8
